X:42
T:Country life is sweet - tune by Eccles
%%VWML:SBG-1-2-738-0
F:http://www.vwml.org/record/SBG/1/2/738
Z:Original Sibelius transcriptions by M. & S. Graebe
M:6/8
I:linebreak $
K:F
V:1 treble nm="P1"
V:1
 A | (F E) D A2 ^c | d3 d2 e | f e d c2 B | A3 z2 G | A B c G2 ^F | G A B F2 E | F E D F2 G |$ %8
 A3 z2 :: A | FG A F G A | F G A F2 e | f e d c2 B | A3 z2 G | AB c G2 ^F |$ GA B F2 E | %16
 FE F DE F | E2 D ^C2 ^c | d ^c B A2 c | d3 z2 c/B/ | A G F E2 D | (D3 D2) x | %22

